packages/calcite-ui-icons/icons/parameters-24.svg

<?xml version="1.0" encoding="UTF-8"?><svg id="icons" xmlns="http://www.w3.org/2000/svg" viewBox="0 0 24 24"><defs><style>.cls-1{fill:none;}</style></defs><rect class="cls-1" width="24" height="24"/><path d="M18.5,21H5.5c-2.48145,0-4.5-2.01855-4.5-4.5V7.5c0-2.48145,2.01855-4.5,4.5-4.5h13c2.48145,0,4.5,2.01855,4.5,4.5v9c0,2.48145-2.01855,4.5-4.5,4.5ZM5.5,4c-1.92969,0-3.5,1.57031-3.5,3.5v9c0,1.92969,1.57031,3.5,3.5,3.5h13c1.92969,0,3.5-1.57031,3.5-3.5V7.5c0-1.92969-1.57031-3.5-3.5-3.5H5.5ZM10,18h-1V6h3.45703c1.03711,0,2.01562.45605,2.68262,1.25195.66699.79492.94531,1.8457.76172,2.88184-.28906,1.63379-1.83887,2.86621-3.60449,2.86621h-2.29688v5ZM10,12h2.29688c1.28809,0,2.41406-.87695,2.62012-2.04004.13281-.75586-.05957-1.48926-.54297-2.06543-.47754-.56836-1.17578-.89453-1.91699-.89453h-2.45703v5Z"/></svg>

<svg xmlns="http://www.w3.org/2000/svg" viewBox="0 0 24 24"><path fill="none" d="M0 0h24v24H0z"/><path d="M18.5 21h-13A4.505 4.505 0 0 1 1 16.5v-9C1 5.019 3.019 3 5.5 3h13C20.981 3 23 5.019 23 7.5v9c0 2.481-2.019 4.5-4.5 4.5zM5.5 4C3.57 4 2 5.57 2 7.5v9C2 18.43 3.57 20 5.5 20h13c1.93 0 3.5-1.57 3.5-3.5v-9C22 5.57 20.43 4 18.5 4h-13zM10 18H9V6h3.457c1.037 0 2.016.456 2.683 1.252.667.795.945 1.846.761 2.882C15.612 11.768 14.063 13 12.297 13H10v5zm0-6h2.297c1.288 0 2.414-.877 2.62-2.04a2.49 2.49 0 0 0-.543-2.065A2.498 2.498 0 0 0 12.457 7H10v5z"/></svg>
